X:1
T:E minor William Billings, 1779 (Revised after 1781)
T:Isaac Watts, 1719 (Psalm 90) 86. 86. (C. M.)
T:Hampshire (1779) No copyright.  Transcribed from Music In Miniature, 1779.
%%score [ 1 2 3 4 ]
L:1/8
M:3/2
K:G
V:1 treble nm="Treble" snm="Tr."
V:2 treble nm="Counter" snm="C."
V:3 treble-8 nm="Tenor" snm="T."
V:4 bass nm="Bass" snm="B."
V:1
 B4 | G8 B4 | B8 G4 | B8 A4 | G8 G4 | F8 B4 | d8 B4 | B8 G4 | B8 d4 | (d4 e4) d4 | (d4 c4) B4 | %11
w: 1.~Re-|turn, O|God of|love, re-|turn; Earth|is a|tire- some|place: How|long shall|we, * Thy|child- * ren|
 B8 B4 | A8 G4 | (d4 c4) B4 | B8 |] %15
w: mourn Our|ab- sence|from * Thy|face?|
V:2
 E4 | E8 G4 | F8 E4 | E8 ^D4 | E8 E4 | D8 E4 | F8 E4 | ^D8 E4 | G8 B4 | B8 B4 | (B4 A4) F4 | %11
w: 2.~Let|heav'n suc-|ceed our|pain- ful|years, Let|sin and|sor- row|cease; And|in pro-|por- tion|to * our|
 G8 G4 | F8 G4 | (G3 B A4) F4 | G8 |] %15
w: tears So|make our|joys * * in-|crease.|
V:3
 B4 | B8 e4 | d8 B4 | G8 A4 | B8 B4 | B8 G4 | A8 G4 | F8 B4 | e8 f4 | g8 f4 | (g3 f e4) ^d4 | %11
w: 3.~Thy|won- ders|to Thy|ser- vants|show, Make|Thy own|work com-|plete; Then|shall our|souls Thy|glo- * * ry|
 e8 B4 | (d3 e d4) c4 | (B4 e4) ^d4 | e8 |] %15
w: know, And|own * * Thy|love * was|great.|
V:4
 E,4 | E,8 E,4 | B,,8 E,4 | G,8 F,4 | E,8 E,4 | B,,8 E,4 | D,8 E,4 | B,,8 E,4 | E,8 B,4 | %9
w: 4.~Then|shall we|shine be-|fore Thy|throne, In|all Thy|beau- ty,|Lord; And|the poor|
 (G,3 F, E,4) B,4 | (G,4 A,4) B,4 | E,8 G,4 | D,8 E,4 | (G,4 A,4) B,4 | E,8 |] %15
w: ser- * * vice|we * have|done Meet|a di-|vine * re-|ward.|

